common/icons/svgs/info2.svg

<svg xmlns="http://www.w3.org/2000/svg" width="24" height="24" viewBox="0 0 24 24">
  <g fill="none" fill-rule="evenodd" transform="translate(-360 -402)">
    <rect width="504" height="450" fill="#FFF"/>
    <g transform="translate(360 402)">
      <rect width="24" height="24"/>
      <rect width="24" height="24"/>
      <path fill="#000" fill-rule="nonzero" d="M22,7.75 C21.4684872,6.43752066 20.6757773,5.24675469 19.67,4.25 C17.6304576,2.16832935 14.8238294,1.01819046 11.91,1.07 C9.04344919,1.01491279 6.28437233,2.16060042 4.3,4.23 C3.27209631,5.245986 2.45630229,6.45608047 1.9,7.79 C0.805470202,10.4414859 0.805470202,13.4185141 1.9,16.07 C2.45311649,17.3889792 3.26201598,18.5853347 4.28,19.59 C5.28365243,20.6167338 6.47976384,21.4356624 7.8,22 C9.10463946,22.5462292 10.5056362,22.8250684 11.92,22.82 C13.35054,22.8250192 14.767875,22.5463106 16.09,22 C17.4393417,21.4404444 18.6658272,20.621655 19.7,19.59 C20.7027725,18.6045781 21.4864874,17.4187833 22,16.11 C22.5308468,14.7807713 22.7991238,13.3612805 22.79,11.93 C22.7996304,10.4986737 22.5313352,9.07908642 22,7.75 Z M18.31,18.16 C17.448905,19.0145932 16.4300456,19.6938327 15.31,20.16 C13.1460932,21.0577923 10.7139068,21.0577923 8.55,20.16 C6.37428875,19.2223353 4.644175,17.4814755 3.72,15.3 C2.80242721,13.1435489 2.80242721,10.7064511 3.72,8.55 C4.19468862,7.45821524 4.87351454,6.46712939 5.72,5.63 C7.34974505,3.90834333 9.6297663,2.95349366 12,3 C14.3748861,2.96451389 16.6587065,3.91278799 18.31,5.62 C19.1355382,6.43860136 19.7884251,7.41453124 20.23,8.49 C20.6723482,9.57562834 20.8966134,10.7377299 20.89,11.91 C20.9497102,14.2639194 20.0127723,16.5336334 18.31,18.16 L18.31,18.16 Z"/>
      <path fill="#000" fill-rule="nonzero" d="M14.056213,16.7334554 L13.0207101,16.7334554 L13.0207101,10.8615324 C13.0207101,10.4154562 12.6498217,10.0538401 12.1923077,10.0538401 L10.3284024,10.0538401 C9.87088837,10.0538401 9.5,10.4154562 9.5,10.8615324 C9.5,11.3076085 9.87088837,11.6692247 10.3284024,11.6692247 L11.3639053,11.6692247 L11.3639053,16.7253785 L10.3284024,16.7253785 C9.87088837,16.7253785 9.5,17.0869947 9.5,17.5330708 C9.5,17.979147 9.87088837,18.3407631 10.3284024,18.3407631 L14.056213,18.3407631 C14.513727,18.3407631 14.8846154,17.979147 14.8846154,17.5330708 C14.8846154,17.0869947 14.513727,16.7253785 14.056213,16.7253785 L14.056213,16.7334554 Z"/>
      <circle cx="11.75" cy="6.6" r="1.6" fill="#000" fill-rule="nonzero"/>
    </g>
  </g>
</svg>

<svg xmlns="http://www.w3.org/2000/svg" viewbox="0 0 24 24"><g><path class="icon__shape" fill-rule="nonzero" d="M22 7.75a10.45 10.45 0 0 0-2.33-3.5 10.6 10.6 0 0 0-7.76-3.18A10.27 10.27 0 0 0 4.3 4.23a10.91 10.91 0 0 0-2.4 3.56 10.85 10.85 0 0 0 0 8.28 10.83 10.83 0 0 0 2.38 3.52A10.93 10.93 0 0 0 7.8 22a10.57 10.57 0 0 0 4.12.82 10.82 10.82 0 0 0 4.17-.82 11.17 11.17 0 0 0 3.61-2.41 10 10 0 0 0 2.3-3.48c.53-1.33.8-2.749.79-4.18A11.06 11.06 0 0 0 22 7.75zm-3.69 10.41a9.37 9.37 0 0 1-3 2 8.82 8.82 0 0 1-6.76 0 9.2 9.2 0 0 1-4.83-4.86 8.62 8.62 0 0 1 0-6.75 9.35 9.35 0 0 1 2-2.92A8.42 8.42 0 0 1 12 3a8.6 8.6 0 0 1 6.31 2.62 8.69 8.69 0 0 1 1.92 2.87 8.93 8.93 0 0 1 .66 3.42 8.35 8.35 0 0 1-2.58 6.25z"/><path class="icon__shape" fill-rule="nonzero" d="M14.056 16.733h-1.035v-5.871a.818.818 0 0 0-.829-.808h-1.864a.818.818 0 0 0-.828.808c0 .446.37.807.828.807h1.036v5.056h-1.036a.818.818 0 0 0-.828.808c0 .446.37.808.828.808h3.728a.818.818 0 0 0 .829-.808.818.818 0 0 0-.829-.808v.008z"/><circle cx="11.75" cy="6.6" r="1.6" class="icon__shape" fill-rule="nonzero"/></g></svg>
